_includes/icons/ios-restrict.svg

<svg fill="#666" height="50" viewBox="0 0 50 50" width="50" xmlns="http://www.w3.org/2000/svg"><path d="m2 8v9.8125c-.027344.132813-.027344.273438 0 .40625v5.78125h46v-9.6875c0-.03125 0-.0625 0-.09375.042969-.164062.042969-.335937 0-.5v-5.71875zm2 2h5.5625l-5.5625 5.5625zm8.4375 0h5.125l-12 12h-1.5625v-3.5625zm8 0h5.125l-12 12h-5.125zm8 0h5.125l-12 12h-5.125zm8 0h5.125l-12 12h-5.125zm8 0h1.5625v3.5625l-8.4375 8.4375h-5.125zm1.5625 6.4375v5.5625h-5.5625zm-42 8.5625v17h6v-17h-2v15h-2v-15zm36 0v17h6v-17h-2v15h-2v-15z"/></svg>

<svg xmlns="http://www.w3.org/2000/svg" viewBox="0 0 50 50" width="50" height="50" fill="#666"><path d="M 2 8 L 2 17.8125 C 1.972656 17.945313 1.972656 18.085938 2 18.21875 L 2 24 L 48 24 L 48 14.3125 C 48 14.28125 48 14.25 48 14.21875 C 48.042969 14.054688 48.042969 13.882813 48 13.71875 L 48 8 Z M 4 10 L 9.5625 10 L 4 15.5625 Z M 12.4375 10 L 17.5625 10 L 5.5625 22 L 4 22 L 4 18.4375 Z M 20.4375 10 L 25.5625 10 L 13.5625 22 L 8.4375 22 Z M 28.4375 10 L 33.5625 10 L 21.5625 22 L 16.4375 22 Z M 36.4375 10 L 41.5625 10 L 29.5625 22 L 24.4375 22 Z M 44.4375 10 L 46 10 L 46 13.5625 L 37.5625 22 L 32.4375 22 Z M 46 16.4375 L 46 22 L 40.4375 22 Z M 4 25 L 4 42 L 10 42 L 10 25 L 8 25 L 8 40 L 6 40 L 6 25 Z M 40 25 L 40 42 L 46 42 L 46 25 L 44 25 L 44 40 L 42 40 L 42 25 Z"/></svg>
